; generated by Slic3r 1.3.1-dev (Build 18ddd3a36dc69d81fb9b7440498bff9e1dde8b7e) on 2023-05-12 at 20:24:31

; external perimeters extrusion width = 0.55mm (2.91mm^3/s)
; perimeters extrusion width = 0.70mm (7.63mm^3/s)
; infill extrusion width = 0.63mm (8.41mm^3/s)
; solid infill extrusion width = 0.70mm (3.81mm^3/s)
; top infill extrusion width = 0.70mm (2.86mm^3/s)

G92 E0
M104 S240 ; set temperature

G1 Z5 F5000 ; lift nozzle

; Filament gcode

M109 S240 ; set temperature and wait for it to be reached
G21 ; set units to millimeters
G90 ; use absolute coordinates
M82 ; use absolute distances for extrusion
G92 E0
G1 Z0.350 F3600.000
G1 E-2.00000 F2400.00000
G92 E0
G1 X2.042 Y16.724 F3600.000
G1 E2.00000 F2400.00000
G1 F1800.000
G1 X26.582 Y-2.305 E2.96083
G1 X28.610 Y-3.376 E3.03179
G1 X30.882 Y-3.691 E3.10276
G1 X33.125 Y-3.212 E3.17372
G1 X35.326 Y-1.755 E3.25540
G1 X165.613 Y128.532 E8.95647
G1 X166.930 Y130.410 E9.02743
G1 X167.527 Y132.625 E9.09839
G1 X167.334 Y134.910 E9.16935
G1 X166.373 Y136.992 E9.24032
G1 X165.613 Y137.902 E9.27697
G1 X153.235 Y150.280 E9.81862
G1 X151.357 Y151.597 E9.88959
G1 X149.142 Y152.194 E9.96055
G1 X146.857 Y152.001 E10.03151
G1 X145.256 Y151.344 E10.08505
G1 X73.486 Y110.217 E12.64447
G1 X71.822 Y108.863 E12.71085
G1 X31.972 Y63.896 E14.56990
G1 X0.982 Y26.164 E16.08070
G1 X-0.145 Y24.166 E16.15166
G1 X-0.523 Y21.904 E16.22262
G1 X-0.107 Y19.649 E16.29359
G1 X1.053 Y17.670 E16.36455
G1 X1.988 Y16.776 E16.40457
G1 F2880.000
G1 X3.884 Y15.305 E14.50457
G1 E14.40457 F2400.00000
G92 E0
G1 X16.523 Y22.896 F3600.000
G1 E2.00000 F2400.00000
G1 F1800.000
G1 X16.390 Y23.028 E2.00670
G1 X17.161 Y23.277 E2.03563
G1 X17.681 Y22.757 E2.06188
G1 X18.131 Y22.703 E2.07805
G1 X18.065 Y23.393 E2.10279
G1 X17.932 Y23.526 E2.10949
G1 X18.842 Y24.494 F3600.000
G1 F1800.000
G1 X59.802 Y37.707 E2.85277
G1 X61.488 Y36.789 F3600.000
G1 F1800.000
G1 X61.355 Y36.922 E2.85870
G1 X61.043 Y37.433 E2.87760
G1 X61.575 Y37.604 E2.89527
G1 X61.939 Y37.241 E2.91152
G1 X62.390 Y37.692 E2.93168
G1 X62.257 Y37.824 E2.93760
G1 F2880.000
G1 X62.390 Y37.692 E2.78915
G1 F2880.000
G1 X61.939 Y37.241 E2.28403
G1 F2880.000
G1 X61.575 Y37.604 E1.87685
G1 F2880.000
G1 X61.043 Y37.433 E1.43403
G1 F2880.000
G1 X61.304 Y37.005 E1.03760
G1 E0.93760 F2400.00000
G92 E0
G1 X61.128 Y35.538 F3600.000
G1 E2.00000 F2400.00000
G1 F1800.000
G1 X30.771 Y5.180 E2.74450
G1 X30.706 Y5.136 E2.74586
G1 F1800.000
G1 X30.641 Y5.091 E2.74745
G1 X30.415 Y5.277 E2.75335
G1 F1800.000
G1 X28.007 Y17.781 E2.97367
G1 X27.903 Y18.171 E2.98066
G1 X27.726 Y18.647 E2.98943
G1 X27.539 Y19.031 E2.99683
G1 X27.217 Y19.532 E3.00714
G1 X26.659 Y20.156 E3.02162
G1 X26.131 Y20.569 E3.03322
G1 X25.797 Y20.769 E3.03996
G1 X25.411 Y20.966 E3.04746
G1 X24.813 Y21.177 E3.05843
G1 X24.009 Y21.329 E3.07258
G1 X19.087 Y21.918 E3.15835
G1 F2880.000
G1 X21.470 Y21.633 E1.25835
G1 E1.15835 F2400.00000
G92 E0
G1 X40.881 Y60.044 F3600.000
G1 E2.00000 F2400.00000
G1 F1800.000
G1 X41.046 Y60.067 E2.00046
G1 F1800.000
G1 X41.375 Y60.112 E2.00296
G1 F1800.000
G1 X41.704 Y60.157 E2.00702
G1 F1800.000
G1 X42.034 Y60.203 E2.01265
G1 F1800.000
G1 X42.363 Y60.248 E2.01984
G1 F1800.000
G1 X42.693 Y60.293 E2.02860
G1 F1800.000
G1 X43.022 Y60.338 E2.03893
G1 X44.422 Y60.530 F3600.000
G1 F1800.000
G1 X44.587 Y60.553 E2.03939
G1 F1800.000
G1 X44.916 Y60.598 E2.04189
G1 F1800.000
G1 X45.246 Y60.643 E2.04595
G1 F1800.000
G1 X45.575 Y60.688 E2.05158
G1 F1800.000
G1 X45.905 Y60.733 E2.05877
G1 F1800.000
G1 X46.234 Y60.779 E2.06753
G1 F1800.000
G1 X46.563 Y60.824 E2.07786
G1 X47.963 Y61.016 F3600.000
G1 F1800.000
G1 X48.128 Y61.038 E2.07832
G1 F1800.000
G1 X48.458 Y61.084 E2.08082
G1 F1800.000
G1 X48.787 Y61.129 E2.08488
G1 F1800.000
G1 X49.116 Y61.174 E2.09050
G1 F1800.000
G1 X49.446 Y61.219 E2.09770
G1 F1800.000
G1 X49.775 Y61.264 E2.10646
G1 F1800.000
G1 X50.105 Y61.309 E2.11678
G1 X50.819 Y61.117 F3600.000
G1 F1800.000
G1 X50.686 Y61.250 E2.12323
G1 X50.629 Y61.671 E2.13783
G1 X51.096 Y61.822 E2.15468
G1 X51.840 Y61.077 E2.19085
G1 X52.089 Y61.067 E2.19939
G1 X51.970 Y61.929 E2.22925
G1 X51.837 Y62.061 E2.23569
G1 X52.709 Y63.017 F3600.000
G1 F1800.000
G1 X100.543 Y78.447 E3.10406
G1 X102.228 Y77.530 F3600.000
G1 F1800.000
G1 X102.095 Y77.663 E3.10999
G1 X101.784 Y78.172 E3.12883
G1 X102.315 Y78.344 E3.14645
G1 X102.679 Y77.981 E3.16266
G1 X103.129 Y78.431 E3.18275
G1 X102.997 Y78.564 E3.18867
G1 F2880.000
G1 X103.129 Y78.431 E3.04022
G1 F2880.000
G1 X102.679 Y77.981 E2.53584
G1 F2880.000
G1 X102.315 Y78.344 E2.12904
G1 F2880.000
G1 X101.784 Y78.172 E1.68689
G1 F2880.000
G1 X102.046 Y77.743 E1.28867
G1 E1.18867 F2400.00000
G92 E0
G1 X101.869 Y76.279 F3600.000
G1 E2.00000 F2400.00000
G1 F1800.000
G1 X67.365 Y41.774 E2.84622
G1 X67.293 Y41.734 E2.84764
G1 F1800.000
G1 X67.149 Y41.653 E2.85122
G1 X67.012 Y41.859 E2.85661
G1 F1800.000
G1 X62.120 Y57.022 E3.13376
G1 X61.823 Y57.737 E3.14723
G1 X61.434 Y58.361 E3.16002
G1 X61.072 Y58.791 E3.16980
G1 X60.731 Y59.106 E3.17787
G1 X60.320 Y59.416 E3.18683
G1 X59.879 Y59.679 E3.19576
G1 X59.406 Y59.887 E3.20475
G1 X58.947 Y60.031 E3.21312
G1 X58.428 Y60.132 E3.22231
G1 X57.878 Y60.179 E3.23192
G1 X53.074 Y60.368 E3.31555
G1 F2880.000
G1 X55.472 Y60.274 E1.41555
G1 E1.31555 F2400.00000
G92 E0
G1 X80.358 Y104.891 F3600.000
G1 E2.00000 F2400.00000
G1 F1800.000
G1 X80.674 Y104.929 E2.00170
G1 F1800.000
G1 X80.991 Y104.966 E2.00495
G1 F1800.000
G1 X81.307 Y105.003 E2.00976
G1 F1800.000
G1 X81.623 Y105.041 E2.01612
G1 F1800.000
G1 X81.940 Y105.078 E2.02404
G1 F1800.000
G1 X82.256 Y105.115 E2.03352
G1 X83.569 Y105.270 F3600.000
G1 F1800.000
G1 X83.885 Y105.308 E2.03521
G1 F1800.000
G1 X84.201 Y105.345 E2.03846
G1 F1800.000
G1 X84.518 Y105.383 E2.04327
G1 F1800.000
G1 X84.834 Y105.420 E2.04964
G1 F1800.000
G1 X85.150 Y105.457 E2.05756
G1 F1800.000
G1 X85.467 Y105.495 E2.06703
G1 X86.779 Y105.650 F3600.000
G1 F1800.000
G1 X87.096 Y105.687 E2.06873
G1 F1800.000
G1 X87.412 Y105.724 E2.07198
G1 F1800.000
G1 X87.728 Y105.762 E2.07679
G1 F1800.000
G1 X88.045 Y105.799 E2.08315
G1 F1800.000
G1 X88.361 Y105.836 E2.09107
G1 F1800.000
G1 X88.677 Y105.874 E2.10055
G1 X89.766 Y105.760 F3600.000
G1 F1800.000
G1 X89.257 Y105.799 E2.11952
G1 X89.206 Y106.228 E2.13554
G1 X89.276 Y106.250 E2.13826
G1 X89.899 Y105.627 E2.17097
G1 X90.304 Y105.596 E2.18604
G1 X90.211 Y106.376 E2.21521
G1 X90.078 Y106.509 E2.22218
G1 X90.966 Y107.468 F3600.000
G1 F1800.000
G1 X147.946 Y125.851 E3.26269
G1 X149.631 Y124.933 F3600.000
G1 F1800.000
G1 X149.498 Y125.066 E3.26862
G1 X149.186 Y125.576 E3.28752
G1 X149.719 Y125.748 E3.30519
G1 X150.082 Y125.384 E3.32144
G1 X150.534 Y125.835 E3.34159
G1 X150.401 Y125.968 E3.34752
G1 F2880.000
G1 X150.534 Y125.835 E3.19907
G1 F2880.000
G1 X150.082 Y125.384 E2.69395
G1 F2880.000
G1 X149.719 Y125.748 E2.28679
G1 F2880.000
G1 X149.186 Y125.576 E1.84399
G1 F2880.000
G1 X149.448 Y125.149 E1.44752
G1 E1.34752 F2400.00000
G92 E0
G1 X149.272 Y123.682 F3600.000
G1 E2.00000 F2400.00000
G1 F1800.000
G1 X108.105 Y82.515 E3.00960
G1 X108.033 Y82.474 E3.01104
G1 F1800.000
G1 X107.889 Y82.393 E3.01464
G1 X107.752 Y82.600 E3.02003
G1 F1800.000
G1 X101.752 Y101.203 E3.35948
G1 X101.494 Y101.841 E3.37144
G1 X101.133 Y102.458 E3.38385
G1 X100.738 Y102.941 E3.39468
G1 X100.350 Y103.305 E3.40392
G1 X100.107 Y103.496 E3.40929
G1 X99.645 Y103.796 E3.41885
G1 X99.115 Y104.045 E3.42903
G1 X98.445 Y104.250 E3.44119
G1 X97.848 Y104.345 E3.45169
G1 X91.278 Y104.855 E3.56613
G1 F2880.000
G1 X93.671 Y104.669 E1.66613
G1 E1.56613 F2400.00000
G92 E0
G1 X155.728 Y131.030 F3600.000
G1 E2.00000 F2400.00000
G1 F1800.000
G1 X155.453 Y131.304 E2.01441
G1 X154.948 Y132.870 E2.07548
G1 X156.258 Y131.560 E2.14425
G1 X156.788 Y132.090 E2.17210
G1 X154.443 Y134.435 E2.29523
G1 X153.938 Y136.001 E2.35631
G1 X157.319 Y132.620 E2.53380
G1 X157.849 Y133.151 E2.56165
G1 X153.433 Y137.566 E2.79351
G1 F2880.000
G1 X155.130 Y135.869 E0.89351
G1 E0.79351 F2400.00000
G92 E0
G1 X155.308 Y129.859 F3600.000
G1 E2.00000 F2400.00000
G1 F1800.000
G1 X158.666 Y133.217 E2.14695
G1 X152.554 Y139.329 E2.41439
G1 X152.303 Y139.175 E2.42352
G1 X155.285 Y129.930 E2.72408
G1 X155.027 Y128.694 F3600.000
G1 F1800.000
G1 X159.550 Y133.217 E2.92199
G1 X151.164 Y141.603 E3.28893
G1 X150.912 Y141.449 E3.29807
G1 X155.004 Y128.766 E3.71042
G1 F2880.000
G1 X156.719 Y130.445 E1.81042
G1 E1.71042 F2400.00000
G92 E0
G1 X147.921 Y125.292 F3600.000
G1 E2.00000 F2400.00000
G1 F1800.000
G1 X91.332 Y107.035 E3.83981
G1 X91.532 Y105.362 E3.89192
G1 X98.080 Y104.850 E4.09515
G1 X98.715 Y104.727 E4.11515
G1 X99.318 Y104.530 E4.13478
G1 X99.884 Y104.263 E4.15416
G1 X100.412 Y103.926 E4.17354
G1 X100.695 Y103.703 E4.18468
G1 X101.148 Y103.271 E4.20407
G1 X101.556 Y102.767 E4.22413
G1 X101.731 Y102.500 E4.23398
G1 X102.017 Y101.967 E4.25272
G1 X102.246 Y101.379 E4.27222
G1 X108.095 Y83.247 E4.86172
G1 X148.763 Y123.915 E6.64124
G1 X147.960 Y125.228 E6.68886
G1 X147.645 Y124.546 F3600.000
G1 F1800.000
G1 X92.014 Y106.598 E8.49752
G1 X92.092 Y105.945 E8.51786
G1 X98.164 Y105.471 E8.70632
G1 X98.860 Y105.336 E8.72824
G1 X99.196 Y105.240 E8.73907
G1 X99.559 Y105.107 E8.75103
G1 X100.187 Y104.811 E8.77251
G1 X100.774 Y104.436 E8.79406
G1 X101.104 Y104.176 E8.80707
G1 X101.609 Y103.695 E8.82863
G1 X102.062 Y103.135 E8.85091
G1 X102.268 Y102.820 E8.86259
G1 X102.585 Y102.229 E8.88333
G1 X102.835 Y101.589 E8.90458
G1 X108.376 Y84.412 E9.46303
G1 X147.973 Y124.009 E11.19570
G1 X147.684 Y124.482 E11.21286
G1 X147.670 Y125.046 F3600.000
G1 F2880.000
G1 X145.399 Y123.748 E9.31286
G1 E9.21286 F2400.00000
G92 E0
G1 X90.675 Y107.270 F3600.000
G1 E2.00000 F2400.00000
G1 F1800.000
G1 X85.759 Y105.684 E2.15983
G1 X85.795 Y105.378 E2.16937
G1 X90.948 Y104.981 E2.32928
G1 X90.684 Y107.196 E2.39830
G1 F2880.000
G1 X88.389 Y106.492 E0.49830
G1 E0.39830 F2400.00000
G92 E0
G1 X148.306 Y125.861 F3600.000
G1 E2.00000 F2400.00000
G1 F1800.000
G1 X149.446 Y123.996 E2.06762
G1 X152.296 Y126.847 E2.19234
G1 X152.142 Y127.099 E2.20148
G1 X148.377 Y125.884 E2.32388
G1 F2880.000
G1 X149.446 Y123.996 E0.60664
G1 F2880.000
G1 X149.609 Y124.160 E0.42388
G1 E0.32388 F2400.00000
G92 E0
G1 X154.416 Y128.489 F3600.000
G1 E2.00000 F2400.00000
G1 F1800.000
G1 X82.548 Y105.305 E4.33652
G1 X82.584 Y104.999 E4.34605
G1 X97.796 Y103.826 E4.81813
G1 X98.317 Y103.746 E4.83442
G1 X98.870 Y103.581 E4.85230
G1 X99.403 Y103.332 E4.87049
G1 X99.903 Y103.001 E4.88905
G1 X100.348 Y102.594 E4.90770
G1 X100.724 Y102.131 E4.92616
G1 X101.021 Y101.625 E4.94432
G1 X101.226 Y101.120 E4.96117
G1 X107.623 Y81.290 E5.60588
G1 X154.570 Y128.237 E7.66018
G1 X154.455 Y128.425 E7.66699
G1 F2880.000
G1 X152.170 Y127.690 E5.76699
G1 E5.66699 F2400.00000
G92 E0
G1 X100.518 Y77.889 F3600.000
G1 E2.00000 F2400.00000
G1 F1800.000
G1 X53.084 Y62.587 E3.54216
G1 X53.318 Y60.885 E3.59532
G1 X57.911 Y60.704 E3.73752
G1 X58.501 Y60.654 E3.75585
G1 X59.077 Y60.542 E3.77401
G1 X59.592 Y60.379 E3.79072
G1 X60.119 Y60.147 E3.80855
G1 X60.614 Y59.856 E3.82630
G1 X61.074 Y59.509 E3.84412
G1 X61.511 Y59.091 E3.86283
G1 X61.857 Y58.675 E3.87959
G1 X62.167 Y58.205 E3.89702
G1 X62.418 Y57.718 E3.91395
G1 X62.616 Y57.196 E3.93124
G1 X67.355 Y42.507 E4.40879
G1 X101.360 Y76.512 E5.89678
G1 X100.557 Y77.825 E5.94440
G1 X100.241 Y77.143 F3600.000
G1 F1800.000
G1 X53.774 Y62.153 E7.45512
G1 X53.866 Y61.489 E7.47587
G1 X57.949 Y61.328 E7.60231
G1 X58.587 Y61.274 E7.62213
G1 X59.231 Y61.149 E7.64242
G1 X59.813 Y60.965 E7.66130
G1 X60.405 Y60.704 E7.68131
G1 X60.961 Y60.376 E7.70129
G1 X61.479 Y59.986 E7.72135
G1 X61.969 Y59.518 E7.74230
G1 X62.359 Y59.048 E7.76123
G1 X62.707 Y58.521 E7.78077
G1 X62.990 Y57.973 E7.79984
G1 X63.206 Y57.403 E7.81871
G1 X67.636 Y43.671 E8.26513
G1 X100.570 Y76.606 E9.70626
G1 X100.281 Y77.079 E9.72343
G1 X100.266 Y77.643 F3600.000
G1 F2880.000
G1 X97.995 Y76.346 E7.82343
G1 E7.72343 F2400.00000
G92 E0
G1 X52.421 Y62.818 F3600.000
G1 E2.00000 F2400.00000
G1 F1800.000
G1 X46.852 Y61.022 E2.18106
G1 X46.894 Y60.711 E2.19079
G1 X52.743 Y60.480 E2.37190
G1 X52.431 Y62.744 E2.44262
G1 F2880.000
G1 X50.138 Y62.036 E0.54262
G1 E0.44262 F2400.00000
G92 E0
G1 X100.903 Y78.457 F3600.000
G1 E2.00000 F2400.00000
G1 F1800.000
G1 X102.043 Y76.593 E2.06760
G1 X104.892 Y79.442 E2.19226
G1 X104.738 Y79.694 E2.20139
G1 X100.974 Y78.480 E2.32374
G1 F2880.000
G1 X102.043 Y76.593 E0.60716
G1 F2880.000
G1 X102.206 Y76.757 E0.42374
G1 E0.32374 F2400.00000
G92 E0
G1 X107.011 Y81.084 F3600.000
G1 E2.00000 F2400.00000
G1 F1800.000
G1 X43.310 Y60.536 E4.07099
G1 X43.353 Y60.225 E4.08072
G1 X58.014 Y59.647 E4.53470
G1 X58.553 Y59.589 E4.55147
G1 X59.101 Y59.446 E4.56901
G1 X59.725 Y59.172 E4.59007
G1 X60.220 Y58.854 E4.60828
G1 X60.707 Y58.419 E4.62849
G1 X61.072 Y57.973 E4.64632
G1 X61.367 Y57.488 E4.66389
G1 X61.585 Y56.966 E4.68139
G1 X66.884 Y40.551 E5.21510
G1 X107.165 Y80.832 E6.97773
G1 X107.050 Y81.020 E6.98455
G1 F2880.000
G1 X104.766 Y80.286 E5.08455
G1 E4.98455 F2400.00000
G92 E0
G1 X59.777 Y37.149 F3600.000
G1 E2.00000 F2400.00000
G1 F1800.000
G1 X19.197 Y24.057 E3.31932
G1 X19.354 Y22.416 E3.37035
G1 X24.083 Y21.850 E3.51773
G1 X24.692 Y21.750 E3.53683
G1 X25.234 Y21.599 E3.55423
G1 X25.486 Y21.506 E3.56255
G1 X26.056 Y21.234 E3.58207
G1 X26.558 Y20.912 E3.60052
G1 X27.009 Y20.546 E3.61850
G1 X27.243 Y20.315 E3.62868
G1 X27.638 Y19.847 E3.64763
G1 X27.947 Y19.379 E3.66499
G1 X28.210 Y18.859 E3.68302
G1 X28.409 Y18.328 E3.70055
G1 X28.548 Y17.769 E3.71838
G1 X30.816 Y5.968 E4.09020
G1 X60.619 Y35.771 E5.39432
G1 X59.816 Y37.085 E5.44194
G1 X59.501 Y36.403 F3600.000
G1 F1800.000
G1 X19.867 Y23.617 E6.73050
G1 X19.928 Y22.976 E6.75041
G1 X24.170 Y22.468 E6.88262
G1 X24.827 Y22.361 E6.90321
G1 X25.426 Y22.194 E6.92246
G1 X25.729 Y22.082 E6.93244
G1 X26.360 Y21.782 E6.95406
G1 X26.924 Y21.419 E6.97481
G1 X27.426 Y21.012 E6.99481
G1 X27.702 Y20.740 E7.00680
G1 X28.139 Y20.222 E7.02776
G1 X28.488 Y19.693 E7.04738
G1 X28.783 Y19.110 E7.06759
G1 X29.007 Y18.514 E7.08730
G1 X29.158 Y17.903 E7.10676
G1 X31.207 Y7.243 E7.44264
G1 X59.829 Y35.865 E8.69508
G1 X59.540 Y36.339 E8.71224
G1 X59.525 Y36.902 F3600.000
G1 F2880.000
G1 X57.255 Y35.606 E6.81224
G1 E6.71224 F2400.00000
G92 E0
G1 X18.547 Y24.293 F3600.000
G1 E2.00000 F2400.00000
G1 F1800.000
G1 X14.219 Y22.897 E2.14070
G1 X14.248 Y22.597 E2.15003
G1 X18.760 Y22.057 E2.29062
G1 X18.554 Y24.218 E2.35779
G1 F2880.000
G1 X16.258 Y23.519 E0.45779
G1 E0.35779 F2400.00000
G92 E0
G1 X60.162 Y37.717 F3600.000
G1 E2.00000 F2400.00000
G1 F1800.000
G1 X61.302 Y35.853 E2.06762
G1 X64.152 Y38.703 E2.19234
G1 X63.998 Y38.955 E2.20148
G1 X60.233 Y37.740 E2.32388
G1 F2880.000
G1 X61.302 Y35.853 E0.60662
G1 F2880.000
G1 X61.465 Y36.016 E0.42388
G1 E0.32388 F2400.00000
G92 E0
G1 X66.272 Y40.345 F3600.000
G1 E2.00000 F2400.00000
G1 F1800.000
G1 X11.311 Y22.615 E3.78686
G1 X11.340 Y22.315 E3.79620
G1 X24.115 Y20.788 E4.19431
G1 X24.661 Y20.681 E4.21152
G1 X25.213 Y20.485 E4.22964
G1 X25.829 Y20.145 E4.25141
G1 X26.307 Y19.768 E4.27025
G1 X26.764 Y19.268 E4.29119
G1 X27.091 Y18.766 E4.30972
G1 X27.336 Y18.232 E4.32792
G1 X27.496 Y17.669 E4.34603
G1 X29.930 Y5.020 E4.74458
G1 X30.641 Y4.308 E4.77571
G1 X66.426 Y40.093 E6.34156
G1 X66.311 Y40.281 E6.34838
G1 X66.099 Y40.946 F3600.000
G1 F1800.000
G1 X8.402 Y22.334 E8.22418
G1 X8.431 Y22.033 E8.23352
G1 X24.018 Y20.170 E8.71922
G1 X24.496 Y20.076 E8.73429
G1 X24.956 Y19.913 E8.74941
G1 X25.482 Y19.623 E8.76799
G1 X25.880 Y19.309 E8.78367
G1 X26.268 Y18.884 E8.80147
G1 X26.542 Y18.463 E8.81701
G1 X26.748 Y18.015 E8.83229
G1 X26.888 Y17.524 E8.84807
G1 X29.353 Y4.714 E9.25171
G1 X30.641 Y3.425 E9.30811
G1 X160.434 Y133.217 E14.98751
G1 X149.774 Y143.877 E15.45395
G1 X149.522 Y143.723 E15.46309
G1 X154.243 Y129.090 E15.93884
G1 X79.337 Y104.926 E18.37412
G1 X79.374 Y104.620 E18.38366
G1 X97.725 Y103.205 E18.95316
G1 X98.179 Y103.135 E18.96738
G1 X98.647 Y102.995 E18.98250
G1 X99.097 Y102.785 E18.99785
G1 X99.518 Y102.507 E19.01346
G1 X99.892 Y102.164 E19.02917
G1 X100.209 Y101.774 E19.04473
G1 X100.459 Y101.347 E19.06002
