; generated by Slic3r 1.3.1-dev (Build 18ddd3a36dc69d81fb9b7440498bff9e1dde8b7e) on 2023-05-21 at 22:07:23

; external perimeters extrusion width = 0.55mm (2.91mm^3/s)
; perimeters extrusion width = 0.70mm (7.63mm^3/s)
; infill extrusion width = 0.63mm (8.41mm^3/s)
; solid infill extrusion width = 0.70mm (3.81mm^3/s)
; top infill extrusion width = 0.70mm (2.86mm^3/s)

G92 E0
M104 S240 ; set temperature

G1 Z5 F5000 ; lift nozzle

; Filament gcode

M109 S240 ; set temperature and wait for it to be reached
G21 ; set units to millimeters
G90 ; use absolute coordinates
M82 ; use absolute distances for extrusion
G92 E0
G1 Z0.350 F3600.000
G1 E-2.00000 F2400.00000
G92 E0
G1 X66.833 Y34.525 F3600.000
G1 E2.00000 F2400.00000
G1 F1800.000
G1 X67.313 Y33.673 E2.03025
G1 X67.945 Y32.707 E2.06595
G1 X68.383 Y32.111 E2.08883
G1 X68.795 Y31.599 E2.10919
G1 X69.571 Y30.736 E2.14508
G1 X70.025 Y30.281 E2.16496
G1 X88.699 Y12.340 E2.96623
G1 X90.603 Y11.062 E3.03719
G1 X92.829 Y10.509 E3.10815
G1 X95.110 Y10.748 E3.17911
G1 X97.173 Y11.751 E3.25008
G1 X99.232 Y14.190 E3.34884
G1 X111.612 Y39.318 E4.21560
G1 X112.255 Y41.520 E4.28656
G1 X112.108 Y43.809 E4.35752
G1 X111.189 Y45.910 E4.42848
G1 X109.609 Y47.573 E4.49945
G1 X107.557 Y48.597 E4.57041
G1 X105.670 Y48.871 E4.62942
G1 X71.510 Y48.871 E5.68636
G1 X69.251 Y48.474 E5.75732
G1 X67.263 Y47.331 E5.82828
G1 X65.784 Y45.578 E5.89925
G1 X64.991 Y43.426 E5.97021
G1 X64.908 Y41.703 E6.02359
G1 X65.046 Y40.215 E6.06982
G1 X65.224 Y39.094 E6.10493
G1 X65.361 Y38.455 E6.12516
G1 X65.550 Y37.734 E6.14824
G1 X65.845 Y36.796 E6.17866
G1 X66.251 Y35.750 E6.21337
G1 X66.574 Y35.037 E6.23758
G1 X66.799 Y34.592 E6.25303
G1 F2880.000
G1 X66.873 Y34.449 E6.12630
G1 F2880.000
G1 X66.887 Y34.422 E6.10166
G1 F2880.000
G1 X66.969 Y34.270 E5.96548
G1 F2880.000
G1 X66.984 Y34.243 E5.94087
G1 F2880.000
G1 X67.026 Y34.170 E5.87379
G1 F2880.000
G1 X67.255 Y33.773 E5.51135
G1 F2880.000
G1 X67.297 Y33.700 E5.44428
G1 F2880.000
G1 X67.313 Y33.673 E5.41970
G1 F2880.000
G1 X67.407 Y33.520 E5.27783
G1 F2880.000
G1 X67.423 Y33.494 E5.25327
G1 F2880.000
G1 X67.468 Y33.424 E5.18761
G1 F2880.000
G1 X67.716 Y33.041 E4.82615
G1 F2880.000
G1 X67.762 Y32.972 E4.76052
G1 F2880.000
G1 X67.779 Y32.946 E4.73602
G1 F2880.000
G1 X67.877 Y32.802 E4.59845
G1 F2880.000
G1 X67.895 Y32.777 E4.57398
G1 F2880.000
G1 X67.945 Y32.707 E4.50586
G1 F2880.000
G1 X68.058 Y32.551 E4.35303
G1 E4.25303 F2400.00000
G92 E0
G1 X73.954 Y39.491 F3600.000
G1 E2.00000 F2400.00000
G1 F1800.000
G1 X74.428 Y38.857 E2.01583
G1 F1800.000
G1 X74.743 Y38.441 E2.02843
G1 F1800.000
G1 X74.899 Y38.242 E2.03543
G1 F1800.000
G1 X75.097 Y38.004 E2.04515
G1 F1800.000
G1 X75.317 Y37.747 E2.05699
G1 F1800.000
G1 X75.573 Y37.463 E2.07148
G1 F1800.000
G1 X76.277 Y36.747 E2.11317
G1 F1800.000
G1 X84.446 Y28.956 E2.62594
G1 X84.709 Y28.455 F3600.000
G1 F1800.000
G1 X92.335 Y21.118 E2.96672
G1 X92.543 Y21.541 E2.98192
G1 X92.408 Y21.677 E2.98808
G1 X93.163 Y21.388 F3600.000
G1 F1800.000
G1 X102.392 Y40.120 E3.09200
G1 X102.402 Y40.169 E3.09225
G1 F1800.000
G1 X102.411 Y40.219 E3.09264
G1 X102.314 Y40.246 E3.09341
G1 F1800.000
G1 X73.715 Y40.246 E3.23565
G1 F2880.000
G1 X76.115 Y40.246 E1.33565
G1 E1.23565 F2400.00000
G92 E0
G1 X101.811 Y39.846 F3600.000
G1 E2.00000 F2400.00000
G1 F1800.000
G1 X74.122 Y39.846 E2.85675
G1 X93.004 Y21.970 E3.66127
G1 X101.778 Y39.779 E4.27556
G1 X100.807 Y39.221 F3600.000
G1 F1800.000
G1 X75.691 Y39.221 E5.05268
G1 X92.818 Y23.006 E5.78243
G1 X100.774 Y39.154 E6.33941
G1 X99.802 Y38.596 F3600.000
G1 F1800.000
G1 X77.260 Y38.596 E7.03691
G1 X92.632 Y24.043 E7.69188
G1 X99.769 Y38.529 E8.19156
G1 X99.951 Y39.074 F3600.000
G1 F2880.000
G1 X97.369 Y38.536 E6.29156
G1 E6.19156 F2400.00000
G92 E0
G1 X103.098 Y40.647 F3600.000
G1 E2.00000 F2400.00000
G1 F1800.000
G1 X73.303 Y40.647 E2.92191
G1 X73.482 Y39.908 E2.94544
G1 X73.636 Y39.435 E2.96081
G1 X73.960 Y38.656 E2.98691
G1 X74.159 Y38.266 E3.00048
G1 X74.631 Y37.498 E3.02836
G1 X75.139 Y36.834 E3.05421
G1 X75.424 Y36.515 E3.06747
G1 X92.820 Y19.787 E3.81422
G1 X103.065 Y40.579 E4.53143
G1 X104.103 Y41.271 F3600.000
G1 F1800.000
G1 X72.580 Y41.271 E5.50679
G1 X72.672 Y40.609 E5.52748
G1 X72.883 Y39.730 E5.55545
G1 X73.047 Y39.226 E5.57185
G1 X73.396 Y38.387 E5.59996
G1 X73.827 Y37.588 E5.62807
G1 X74.115 Y37.144 E5.64444
G1 X74.662 Y36.430 E5.67226
G1 X74.969 Y36.087 E5.68650
G1 X93.003 Y18.744 E6.46067
G1 X104.069 Y41.204 E7.23538
G1 X105.107 Y41.896 F3600.000
G1 F1800.000
G1 X71.894 Y41.896 E8.26303
G1 X71.979 Y40.980 E8.29150
G1 X72.057 Y40.494 E8.30674
G1 X72.162 Y40.006 E8.32217
G1 X72.283 Y39.552 E8.33672
G1 X72.458 Y39.017 E8.35414
G1 X72.627 Y38.577 E8.36871
G1 X72.831 Y38.118 E8.38426
G1 X73.294 Y37.262 E8.41437
G1 X73.600 Y36.790 E8.43176
G1 X74.185 Y36.026 E8.46156
G1 X74.513 Y35.659 E8.47679
G1 X74.860 Y35.308 E8.49205
G1 X93.186 Y17.702 E9.27837
G1 X105.074 Y41.829 E10.11060
G1 X104.608 Y41.861 F3600.000
G1 Z0.622 F3600.000
G1 X102.330 Y40.038 F3600.000
G1 F1200.000
G1 X102.358 Y40.186 E10.11300
G1 X102.140 Y40.246 E10.11660
G1 F1200.000
G1 X73.611 Y40.246 E10.48288
G1 X73.754 Y39.740 F3600.000
G1 F1200.000
G1 X73.976 Y39.449 E10.49116
G1 F1200.000
G1 X74.421 Y38.868 E10.51037
G1 F1200.000
G1 X74.866 Y38.286 E10.53152
G1 X74.760 Y37.677 E10.54938
G1 X75.865 Y37.605 F3600.000
G1 F1200.000
G1 X75.729 Y37.469 E10.55416
G1 X75.635 Y36.923 E10.56791
G1 X75.733 Y36.813 E10.57158
G1 X75.862 Y36.689 E10.57600
G1 X76.334 Y37.161 E10.59258
G1 X76.803 Y36.718 E10.60859
G1 X76.327 Y36.242 E10.62530
G1 X76.792 Y35.795 E10.64131
G1 X77.271 Y36.274 E10.65814
G1 X77.739 Y35.831 E10.67415
G1 X77.256 Y35.348 E10.69110
G1 X77.721 Y34.901 E10.70711
G1 X78.208 Y35.387 E10.72419
G1 X78.676 Y34.944 E10.74020
G1 X78.186 Y34.454 E10.75740
G1 X78.651 Y34.007 E10.77341
G1 X79.145 Y34.500 E10.79074
G1 X79.613 Y34.057 E10.80675
G1 X79.116 Y33.560 E10.82420
G1 X79.581 Y33.113 E10.84021
G1 X80.082 Y33.613 E10.85779
G1 X80.550 Y33.170 E10.87380
G1 X80.046 Y32.665 E10.89150
G1 X80.511 Y32.218 E10.90751
G1 X81.019 Y32.726 E10.92534
G1 X81.487 Y32.283 E10.94135
G1 X80.976 Y31.771 E10.95930
G1 X81.441 Y31.324 E10.97531
G1 X81.956 Y31.839 E10.99339
G1 X82.424 Y31.396 E11.00940
G1 X81.906 Y30.877 E11.02760
G1 X82.370 Y30.430 E11.04361
G1 X82.893 Y30.952 E11.06193
G1 X83.361 Y30.509 E11.07794
G1 X82.835 Y29.983 E11.09639
G1 X83.300 Y29.536 E11.11240
G1 X83.829 Y30.065 E11.13097
G1 X84.298 Y29.622 E11.14699
G1 X83.765 Y29.089 E11.16568
G1 X84.230 Y28.642 E11.18169
G1 X84.766 Y29.178 E11.20052
G1 X85.235 Y28.735 E11.21653
G1 X84.695 Y28.195 E11.23548
G1 X85.160 Y27.748 E11.25149
G1 X85.703 Y28.291 E11.27056
G1 X86.172 Y27.848 E11.28657
G1 X85.625 Y27.301 E11.30577
G1 X86.090 Y26.854 E11.32178
G1 X86.640 Y27.404 E11.34110
G1 X87.109 Y26.960 E11.35711
G1 X86.555 Y26.407 E11.37655
G1 X87.020 Y25.959 E11.39256
G1 X87.577 Y26.517 E11.41213
G1 X88.046 Y26.073 E11.42814
G1 X87.485 Y25.512 E11.44784
G1 X87.949 Y25.065 E11.46385
G1 X88.514 Y25.630 E11.48366
G1 X88.982 Y25.186 E11.49968
G1 X88.414 Y24.618 E11.51962
G1 X88.879 Y24.171 E11.53563
G1 X89.451 Y24.743 E11.55569
G1 X89.919 Y24.299 E11.57170
G1 X89.344 Y23.724 E11.59189
G1 X89.809 Y23.277 E11.60790
G1 X90.388 Y23.856 E11.62822
G1 X90.856 Y23.412 E11.64423
G1 X90.274 Y22.830 E11.66467
G1 X90.739 Y22.383 E11.68067
G1 X91.325 Y22.969 E11.70124
G1 X91.793 Y22.525 E11.71725
G1 X91.204 Y21.936 E11.73793
G1 X91.669 Y21.489 E11.75394
G1 X92.262 Y22.082 E11.77475
G1 X92.496 Y21.859 E11.78278
G1 X92.246 Y21.353 E11.79680
G1 X92.379 Y21.287 E11.80047
G1 X92.134 Y21.042 E11.80909
G1 X92.599 Y20.595 E11.82510
G1 X92.735 Y20.731 E11.82988
G1 X93.213 Y21.490 F3600.000
G1 F1200.000
G1 X102.316 Y39.964 E12.09434
G1 X102.330 Y40.038 E12.09530
G1 X101.624 Y39.730 F3600.000
G1 F2400.000
G1 X74.415 Y39.730 E12.76727
G1 X92.969 Y22.163 E13.39827
G1 X101.591 Y39.662 E13.88005
G1 X100.593 Y39.088 F3600.000
G1 F2400.000
G1 X76.026 Y39.088 E14.48676
G1 X92.778 Y23.227 E15.05648
G1 X100.560 Y39.021 E15.49129
G1 X99.682 Y38.521 F3600.000
G1 F1200.000
G1 X77.448 Y38.521 E15.91201
G1 X92.609 Y24.167 E16.30708
G1 X99.649 Y38.454 E16.60845
G1 X99.829 Y38.999 F3600.000
G1 X103.285 Y40.763 F3600.000
G1 F2400.000
G1 X73.158 Y40.763 E17.35247
G1 X73.362 Y39.907 E17.37419
G1 X73.539 Y39.365 E17.38829
G1 X73.856 Y38.606 E17.40859
G1 X74.245 Y37.883 E17.42888
G1 X74.555 Y37.404 E17.44296
G1 X75.061 Y36.747 E17.46345
G1 X75.339 Y36.435 E17.47377
G1 X92.854 Y19.592 E18.07388
G1 X103.252 Y40.696 E18.65488
G1 X104.317 Y41.405 F3600.000
G1 F2400.000
G1 X72.433 Y41.405 E19.44228
G1 X72.467 Y41.042 E19.45128
G1 X72.539 Y40.594 E19.46249
G1 X72.744 Y39.734 E19.48432
G1 X72.937 Y39.141 E19.49971
G1 X73.276 Y38.330 E19.52142
G1 X73.692 Y37.556 E19.54313
G1 X74.030 Y37.034 E19.55849
G1 X74.566 Y36.337 E19.58021
G1 X74.871 Y35.995 E19.59151
G1 X93.042 Y18.522 E20.21409
G1 X104.284 Y41.337 E20.84222
G1 X105.228 Y41.971 F3600.000
G1 F1200.000
G1 X71.812 Y41.971 E21.47453
G1 X71.905 Y40.971 E21.49355
G1 X71.983 Y40.483 E21.50289
G1 X72.198 Y39.580 E21.52045
G1 X72.405 Y38.944 E21.53312
G1 X72.764 Y38.086 E21.55071
G1 X73.204 Y37.267 E21.56831
G1 X73.567 Y36.706 E21.58095
G1 X74.130 Y35.975 E21.59842
G1 X74.459 Y35.607 E21.60774
G1 X74.807 Y35.255 E21.61713
G1 X93.208 Y17.577 E22.09997
G1 X105.195 Y41.904 E22.61315
G1 X104.729 Y41.935 F3600.000
G1 Z0.894 F3600.000
G1 X102.330 Y40.038 F3600.000
G1 F1200.000
G1 X102.358 Y40.186 E22.61555
G1 X102.140 Y40.246 E22.61915
G1 F1200.000
G1 X73.609 Y40.246 E22.98543
G1 X73.756 Y39.739 F3600.000
G1 F1200.000
G1 X73.976 Y39.450 E22.99363
G1 F1200.000
G1 X74.416 Y38.874 E23.01262
G1 F1200.000
G1 X75.128 Y37.970 E23.04694
G1 X75.533 Y37.597 F3600.000
G1 F1200.000
G1 X87.557 Y25.573 E23.55086
G1 X92.357 Y21.862 F3600.000
G1 F1200.000
G1 X92.494 Y21.726 E23.55656
G1 X93.213 Y21.490 F3600.000
G1 F1200.000
G1 X102.316 Y39.964 E23.82101
G1 X102.330 Y40.038 E23.82197
G1 X101.624 Y39.730 F3600.000
G1 F2400.000
G1 X74.415 Y39.730 E24.49392
G1 X92.969 Y22.163 E25.12491
G1 X101.591 Y39.662 E25.60667
G1 X100.593 Y39.088 F3600.000
G1 F2400.000
G1 X76.026 Y39.088 E26.21337
G1 X92.778 Y23.227 E26.78308
G1 X100.560 Y39.021 E27.21788
G1 X99.682 Y38.521 F3600.000
G1 F1200.000
G1 X77.448 Y38.521 E27.63858
G1 X92.609 Y24.167 E28.03364
G1 X99.649 Y38.454 E28.33501
G1 X99.829 Y38.999 F3600.000
G1 X103.285 Y40.763 F3600.000
G1 F2400.000
G1 X73.158 Y40.763 E29.07901
G1 X73.349 Y39.952 E29.09958
G1 X73.555 Y39.321 E29.11598
G1 X73.856 Y38.606 E29.13513
G1 X74.221 Y37.923 E29.15427
G1 X74.581 Y37.366 E29.17064
G1 X75.060 Y36.748 E29.18994
G1 X75.339 Y36.435 E29.20030
G1 X92.854 Y19.592 E29.80040
G1 X103.252 Y40.696 E30.38139
G1 X104.317 Y41.405 F3600.000
G1 F2400.000
G1 X72.426 Y41.405 E31.16895
G1 X72.541 Y40.585 E31.18940
G1 X72.731 Y39.779 E31.20983
G1 X72.953 Y39.097 E31.22756
G1 X73.276 Y38.330 E31.24810
G1 X73.668 Y37.596 E31.26864
G1 X74.057 Y36.995 E31.28634
G1 X74.566 Y36.338 E31.30686
G1 X74.871 Y35.995 E31.31819
G1 X93.042 Y18.522 E31.94075
G1 X104.284 Y41.337 E32.56887
G1 X105.228 Y41.971 F3600.000
G1 F1200.000
G1 X71.809 Y41.971 E33.20121
G1 X71.862 Y41.347 E33.21307
G1 X71.984 Y40.480 E33.22963
G1 X72.185 Y39.626 E33.24623
G1 X72.422 Y38.899 E33.26071
G1 X72.764 Y38.086 E33.27739
G1 X73.179 Y37.308 E33.29408
G1 X73.595 Y36.667 E33.30853
G1 X74.130 Y35.975 E33.32509
G1 X74.459 Y35.607 E33.33442
G1 X74.807 Y35.255 E33.34381
G1 X93.208 Y17.577 E33.82664
G1 X105.195 Y41.904 E34.33980
G1 X104.729 Y41.935 F3600.000
G1 Z1.166 F3600.000
G1 X102.330 Y40.038 F3600.000
G1 F1200.000
G1 X102.358 Y40.186 E34.34220
G1 X102.140 Y40.246 E34.34580
G1 F1200.000
G1 X73.608 Y40.246 E34.71201
G1 X73.758 Y39.738 F3600.000
G1 F1200.000
G1 X74.186 Y39.176 E34.72909
G1 F1200.000
G1 X74.614 Y38.614 E34.74856
G1 F1200.000
G1 X75.124 Y37.976 E34.77282
G1 X75.461 Y37.433 F3600.000
G1 F1200.000
G1 X75.324 Y37.297 E34.77763
G1 X75.746 Y36.800 E34.79391
G1 X76.217 Y37.272 E34.81057
G1 X76.689 Y36.825 E34.82680
G1 X76.214 Y36.350 E34.84358
G1 X76.682 Y35.900 E34.85981
G1 X77.161 Y36.379 E34.87672
G1 X77.633 Y35.932 E34.89295
G1 X77.150 Y35.450 E34.90999
G1 X77.619 Y35.000 E34.92622
G1 X78.104 Y35.485 E34.94338
G1 X78.576 Y35.039 E34.95961
G1 X78.087 Y34.550 E34.97690
G1 X78.555 Y34.099 E34.99313
G1 X79.048 Y34.592 E35.01055
G1 X79.519 Y34.146 E35.02678
G1 X79.023 Y33.649 E35.04432
G1 X79.491 Y33.199 E35.06055
G1 X79.991 Y33.699 E35.07822
G1 X80.463 Y33.252 E35.09445
G1 X79.959 Y32.749 E35.11225
G1 X80.427 Y32.299 E35.12847
G1 X80.934 Y32.806 E35.14639
G1 X81.406 Y32.359 E35.16263
G1 X80.895 Y31.849 E35.18067
G1 X81.364 Y31.398 E35.19690
G1 X81.878 Y31.913 E35.21508
G1 X82.350 Y31.466 E35.23131
G1 X81.832 Y30.948 E35.24961
G1 X82.300 Y30.498 E35.26583
G1 X82.821 Y31.020 E35.28426
G1 X83.293 Y30.573 E35.30049
G1 X82.768 Y30.048 E35.31905
G1 X83.236 Y29.598 E35.33527
G1 X83.765 Y30.126 E35.35395
G1 X84.236 Y29.680 E35.37018
G1 X83.704 Y29.148 E35.38899
G1 X84.172 Y28.698 E35.40522
G1 X84.708 Y29.233 E35.42415
G1 X85.180 Y28.787 E35.44038
G1 X84.640 Y28.247 E35.45944
G1 X85.109 Y27.797 E35.47567
G1 X85.651 Y28.340 E35.49485
G1 X86.123 Y27.894 E35.51108
G1 X85.577 Y27.347 E35.53039
G1 X86.045 Y26.897 E35.54662
G1 X86.595 Y27.447 E35.56606
G1 X87.067 Y27.000 E35.58229
G1 X86.513 Y26.447 E35.60185
G1 X86.981 Y25.997 E35.61808
G1 X87.538 Y26.554 E35.63777
G1 X88.010 Y26.107 E35.65400
G1 X87.449 Y25.546 E35.67381
G1 X87.917 Y25.096 E35.69004
G1 X88.482 Y25.661 E35.70998
G1 X88.953 Y25.214 E35.72621
G1 X88.385 Y24.646 E35.74628
G1 X88.854 Y24.196 E35.76251
G1 X89.425 Y24.767 E35.78270
G1 X89.897 Y24.321 E35.79893
G1 X89.322 Y23.746 E35.81925
G1 X89.790 Y23.296 E35.83547
G1 X90.368 Y23.874 E35.85592
G1 X90.840 Y23.428 E35.87215
G1 X90.258 Y22.846 E35.89272
G1 X90.726 Y22.395 E35.90895
G1 X91.312 Y22.981 E35.92964
G1 X91.783 Y22.534 E35.94587
G1 X91.194 Y21.945 E35.96669
G1 X91.662 Y21.495 E35.98292
G1 X92.255 Y22.088 E36.00387
G1 X92.496 Y21.859 E36.01217
G1 X92.246 Y21.353 E36.02629
G1 X92.375 Y21.289 E36.02986
G1 X92.130 Y21.045 E36.03850
G1 X92.599 Y20.595 E36.05473
G1 X92.735 Y20.731 E36.05954
G1 X93.213 Y21.490 F3600.000
G1 F1200.000
G1 X102.316 Y39.964 E36.32392
G1 X102.330 Y40.038 E36.32489
G1 X101.624 Y39.730 F3600.000
G1 F2400.000
G1 X74.415 Y39.730 E36.99674
G1 X92.969 Y22.163 E37.62764
G1 X101.591 Y39.662 E38.10934
G1 X100.593 Y39.088 F3600.000
G1 F2400.000
G1 X76.026 Y39.088 E38.71595
G1 X92.778 Y23.227 E39.28558
G1 X100.560 Y39.021 E39.72032
G1 X99.682 Y38.521 F3600.000
G1 F1200.000
G1 X77.448 Y38.521 E40.14097
G1 X92.609 Y24.167 E40.53597
G1 X99.649 Y38.454 E40.83730
G1 X99.829 Y38.999 F3600.000
G1 X103.285 Y40.763 F3600.000
G1 F2400.000
G1 X73.158 Y40.763 E41.58120
G1 X73.337 Y39.997 E41.60061
G1 X73.571 Y39.277 E41.61931
G1 X73.855 Y38.606 E41.63730
G1 X74.198 Y37.963 E41.65530
G1 X74.608 Y37.329 E41.67395
G1 X75.058 Y36.749 E41.69207
G1 X75.339 Y36.435 E41.70247
G1 X92.854 Y19.592 E42.30248
G1 X103.252 Y40.696 E42.88339
G1 X104.317 Y41.405 F3600.000
G1 F2400.000
G1 X72.424 Y41.405 E43.67089
G1 X72.541 Y40.585 E43.69135
G1 X72.718 Y39.825 E43.71061
G1 X72.969 Y39.052 E43.73067
G1 X73.276 Y38.330 E43.75004
G1 X73.644 Y37.637 E43.76942
G1 X74.085 Y36.957 E43.78943
G1 X74.565 Y36.338 E43.80877
G1 X74.871 Y35.995 E43.82012
G1 X93.042 Y18.522 E44.44259
G1 X104.284 Y41.337 E45.07062
G1 X105.228 Y41.971 F3600.000
G1 F1200.000
G1 X71.810 Y41.971 E45.70288
G1 X71.867 Y41.300 E45.71563
G1 X71.984 Y40.480 E45.73129
G1 X72.171 Y39.673 E45.74698
