; generated by Slic3r 1.3.1-dev (Build 18ddd3a36dc69d81fb9b7440498bff9e1dde8b7e) on 2023-05-21 at 21:53:53

; external perimeters extrusion width = 0.55mm (2.91mm^3/s)
; perimeters extrusion width = 0.70mm (7.63mm^3/s)
; infill extrusion width = 0.63mm (8.41mm^3/s)
; solid infill extrusion width = 0.70mm (3.81mm^3/s)
; top infill extrusion width = 0.70mm (2.86mm^3/s)

G92 E0
M104 S240 ; set temperature

G1 Z5 F5000 ; lift nozzle

; Filament gcode

M109 S240 ; set temperature and wait for it to be reached
G21 ; set units to millimeters
G90 ; use absolute coordinates
M82 ; use absolute distances for extrusion
G92 E0
G1 Z0.350 F3600.000
G1 E-2.00000 F2400.00000
G92 E0
G1 X67.119 Y47.712 F3600.000
G1 E2.00000 F2400.00000
G1 F1800.000
G1 X82.780 Y9.559 E3.27607
G1 X84.005 Y7.620 E3.34703
G1 X85.817 Y6.215 E3.41799
G1 X88.000 Y5.513 E3.48896
G1 X90.292 Y5.596 E3.55992
G1 X92.418 Y6.456 E3.63088
G1 X94.124 Y7.990 E3.70184
G1 X95.204 Y10.013 E3.77281
G1 X95.533 Y12.075 E3.83742
G1 X95.533 Y24.385 E4.21831
G1 X95.404 Y25.688 E4.25882
G1 X85.427 Y75.424 E5.82837
G1 X84.594 Y77.561 E5.89933
G1 X83.081 Y79.285 E5.97030
G1 X81.072 Y80.390 E6.04126
G1 X78.806 Y80.745 E6.11222
G1 X75.530 Y79.806 E6.21768
G1 X67.673 Y75.104 E6.50098
G1 X65.939 Y73.604 E6.57194
G1 X64.820 Y71.602 E6.64290
G1 X64.450 Y69.393 E6.71220
G1 X64.456 Y67.946 E6.75696
G1 X64.507 Y65.041 E6.84685
G1 X64.620 Y62.155 E6.93621
G1 X64.810 Y59.257 E7.02609
G1 X64.950 Y57.722 E7.07379
G1 X65.127 Y56.156 E7.12254
G1 X65.341 Y54.627 E7.17030
G1 X65.666 Y52.770 E7.22864
G1 X65.971 Y51.363 E7.27320
G1 X66.239 Y50.318 E7.30658
G1 X66.451 Y49.591 E7.32999
G1 X66.728 Y48.749 E7.35743
G1 X67.091 Y47.781 E7.38940
G1 F2880.000
G1 X68.003 Y45.561 E5.48940
G1 E5.38940 F2400.00000
G92 E0
G1 X74.867 Y52.584 F3600.000
G1 E2.00000 F2400.00000
G1 F1800.000
G1 X74.647 Y53.349 E2.02636
G1 X74.464 Y54.168 E2.05418
G1 X74.319 Y54.981 E2.08151
G1 X74.261 Y55.418 E2.09613
G1 F1800.000
G1 X74.204 Y55.858 E2.11237
G1 X74.142 Y56.617 E2.14026
G1 X73.979 Y57.159 F3600.000
G1 F1800.000
G1 X73.846 Y57.292 E2.14623
G1 X73.729 Y58.317 E2.17906
G1 X74.414 Y57.633 E2.20986
G1 X74.513 Y58.441 E2.23578
G1 X73.629 Y59.325 E2.27555
G1 X73.544 Y60.319 E2.30727
G1 X74.627 Y59.236 E2.35599
G1 X74.741 Y60.031 E2.38153
G1 X73.472 Y61.300 E2.43862
G1 X73.421 Y62.259 E2.46917
G1 X74.855 Y60.825 E2.53366
G1 X74.969 Y61.620 E2.55919
G1 X73.372 Y63.217 E2.63103
G1 X73.326 Y64.171 E2.66142
G1 X75.083 Y62.415 E2.74044
G1 X75.196 Y63.209 E2.76598
G1 X73.295 Y65.111 E2.85151
G1 X73.277 Y66.038 E2.88100
G1 X75.310 Y64.004 E2.97248
G1 X75.424 Y64.799 E2.99801
G1 X73.264 Y66.959 E3.09521
G1 X73.251 Y67.881 E3.12453
G1 X75.538 Y65.593 E3.22744
G1 X75.652 Y66.388 E3.25297
G1 X73.655 Y68.385 E3.34280
G1 X74.244 Y68.705 E3.36411
G1 X75.766 Y67.183 E3.43259
G1 X75.880 Y67.977 E3.45813
G1 X74.821 Y69.037 E3.50577
G1 X75.398 Y69.368 E3.52694
G1 X75.994 Y68.772 E3.55375
G1 X76.107 Y69.567 E3.57928
G1 X75.975 Y69.699 E3.58525
G1 F2880.000
G1 X76.107 Y69.567 E3.43676
G1 F2880.000
G1 X75.994 Y68.772 E2.80121
G1 F2880.000
G1 X75.398 Y69.368 E2.13411
G1 F2880.000
G1 X74.906 Y69.086 E1.68525
G1 E1.58525 F2400.00000
G92 E0
G1 X74.867 Y52.584 F3600.000
G1 E2.00000 F2400.00000
G1 F1800.000
G1 X75.112 Y51.852 E2.02779
G1 X75.401 Y51.109 E2.05644
G1 X86.571 Y23.923 E3.11391
G1 X86.620 Y23.675 E3.12300
G1 F1800.000
G1 X86.669 Y23.428 E3.13088
G1 F1800.000
G1 X86.718 Y23.180 E3.13758
G1 F1800.000
G1 X86.767 Y22.932 E3.14307
G1 F1800.000
G1 X86.816 Y22.685 E3.14737
G1 F1800.000
G1 X86.865 Y22.437 E3.15047
G1 F1800.000
G1 X86.913 Y22.189 E3.15238
G1 F1800.000
G1 X86.962 Y21.941 E3.15309
G1 X87.218 Y20.645 F3600.000
G1 F1800.000
G1 X87.279 Y20.333 E3.16254
G1 F1800.000
G1 X87.341 Y20.021 E3.17045
G1 F1800.000
G1 X87.402 Y19.709 E3.17680
G1 F1800.000
G1 X87.464 Y19.397 E3.18160
G1 F1800.000
G1 X87.526 Y19.085 E3.18484
G1 F1800.000
G1 X87.587 Y18.773 E3.18654
G1 X87.843 Y17.477 F3600.000
G1 F1800.000
G1 X87.904 Y17.165 E3.19599
G1 F1800.000
G1 X87.966 Y16.853 E3.20390
G1 F1800.000
G1 X88.027 Y16.541 E3.21025
G1 F1800.000
G1 X88.089 Y16.229 E3.21505
G1 F1800.000
G1 X88.150 Y15.917 E3.21829
G1 F1800.000
G1 X88.212 Y15.605 E3.21999
G1 F2880.000
G1 X88.150 Y15.917 E2.96819
G1 E1.21999 F2400.00000
G92 E0
G1 X86.571 Y23.923 F3600.000
G1 X75.427 Y51.044 F3600.000
G1 X74.499 Y54.046 F3600.000
G1 X74.198 Y55.912 F3600.000
G1 X74.130 Y58.198 F3600.000
G1 X74.537 Y67.450 F3600.000
G1 X76.848 Y70.857 F3600.000
G1 E2.00000 F2400.00000
G1 F1800.000
G1 X75.901 Y70.273 E2.03443
G1 X73.920 Y69.136 E2.10509
G1 X72.683 Y68.469 E2.14860
G1 X72.728 Y65.303 E2.24654
G1 X72.774 Y63.895 E2.29014
G1 X72.912 Y61.234 E2.37259
G1 X73.014 Y59.849 E2.41555
G1 X73.139 Y58.494 E2.45765
G1 X73.292 Y57.148 E2.49956
G1 X73.479 Y55.816 E2.54121
G1 X73.707 Y54.502 E2.58245
G1 X73.991 Y53.188 E2.62406
G1 X74.327 Y51.961 E2.66341
G1 X74.522 Y51.374 E2.68256
G1 X74.725 Y50.842 E2.70018
G1 X87.006 Y20.922 E3.70088
G1 X87.309 Y20.982 E3.71042
G1 X87.309 Y24.069 E3.80594
G1 X75.771 Y52.117 E4.74434
G1 X75.511 Y52.813 E4.76733
G1 X75.299 Y53.522 E4.79022
G1 X75.118 Y54.308 E4.81517
G1 X74.997 Y55.077 E4.83927
G1 X74.925 Y55.883 E4.86430
G1 X74.910 Y56.655 E4.88821
G1 X74.942 Y57.391 E4.91097
G1 X75.019 Y58.093 E4.93285
G1 X76.837 Y70.783 E5.32949
G1 X77.656 Y72.089 F3600.000
G1 F1800.000
G1 X75.581 Y70.810 E5.40491
G1 X73.616 Y69.682 E5.47501
G1 X72.055 Y68.840 E5.52990
G1 X72.103 Y65.286 E5.63987
G1 X72.150 Y63.869 E5.68375
G1 X72.288 Y61.195 E5.76659
G1 X72.391 Y59.797 E5.80995
G1 X72.517 Y58.430 E5.85244
G1 X72.672 Y57.070 E5.89481
G1 X72.862 Y55.719 E5.93701
G1 X73.093 Y54.383 E5.97896
G1 X73.384 Y53.039 E6.02150
G1 X73.729 Y51.780 E6.06189
G1 X73.934 Y51.164 E6.08198
G1 X74.144 Y50.612 E6.10027
G1 X87.631 Y17.754 E7.19924
G1 X87.933 Y17.814 E7.20877
G1 X87.933 Y24.192 E7.40614
G1 X76.353 Y52.345 E8.34804
G1 X76.104 Y53.013 E8.37008
G1 X75.904 Y53.682 E8.39169
G1 X75.732 Y54.427 E8.41535
G1 X75.617 Y55.153 E8.43811
G1 X75.550 Y55.917 E8.46182
G1 X75.535 Y56.648 E8.48445
G1 X75.566 Y57.343 E8.50597
G1 X75.639 Y58.015 E8.52690
G1 X77.645 Y72.015 E8.96450
G1 X78.474 Y73.394 F3600.000
G1 F1800.000
G1 X77.224 Y72.557 E9.01103
G1 X75.261 Y71.347 E9.08237
G1 X73.312 Y70.228 E9.15191
G1 X71.427 Y69.211 E9.21819
G1 X71.478 Y65.269 E9.34019
G1 X71.525 Y63.842 E9.38436
G1 X71.664 Y61.156 E9.46759
G1 X71.768 Y59.746 E9.51134
G1 X71.895 Y58.366 E9.55421
G1 X72.052 Y56.991 E9.59704
G1 X72.244 Y55.622 E9.63980
G1 X72.480 Y54.263 E9.68247
G1 X72.777 Y52.890 E9.72593
G1 X73.131 Y51.599 E9.76736
G1 X73.345 Y50.954 E9.78839
G1 X73.563 Y50.382 E9.80734
G1 X88.256 Y14.586 E11.00458
G1 X88.558 Y14.646 E11.01411
G1 X88.558 Y24.316 E11.31332
G1 X76.935 Y52.573 E12.25872
G1 X76.697 Y53.212 E12.27981
G1 X76.508 Y53.842 E12.30016
G1 X76.346 Y54.546 E12.32251
G1 X76.238 Y55.230 E12.34394
G1 X76.174 Y55.951 E12.36633
G1 X76.160 Y56.640 E12.38768
G1 X76.189 Y57.295 E12.40795
G1 X76.259 Y57.937 E12.42793
G1 X78.463 Y73.319 E12.90874
G1 X78.151 Y73.011 F3600.000
G1 F2880.000
G1 X77.224 Y72.557 E11.75699
G1 F2880.000
G1 X76.419 Y72.061 E11.00874
G1 E10.90874 F2400.00000
G92 E0
G1 X74.537 Y67.450 F3600.000
G1 X74.130 Y58.198 F3600.000
G1 X74.198 Y55.912 F3600.000
G1 X74.457 Y54.254 F3600.000
G1 X75.427 Y51.044 F3600.000
G1 X86.571 Y23.923 F3600.000
G1 X88.407 Y14.616 F3600.000
G1 E2.00000 F2400.00000
G1 F1800.000
G1 X88.479 Y14.249 E2.01205
G1 F1800.000
G1 X88.552 Y13.882 E2.02238
G1 F1800.000
G1 X88.624 Y13.516 E2.03098
G1 F1800.000
G1 X88.696 Y13.149 E2.03785
G1 F1800.000
G1 X88.769 Y12.782 E2.04300
G1 F1800.000
G1 X88.841 Y12.416 E2.04642
G1 Z0.623 F3600.000
G1 X88.316 Y15.077 F3600.000
G1 F1200.000
G1 X88.258 Y15.372 E2.04780
G1 F1200.000
G1 X88.200 Y15.668 E2.05026
G1 F1200.000
G1 X88.141 Y15.963 E2.05381
G1 F1200.000
G1 X88.083 Y16.259 E2.05844
G1 F1200.000
G1 X88.025 Y16.554 E2.06416
G1 F1200.000
G1 X87.967 Y16.850 E2.07096
G1 X87.712 Y18.138 F3600.000
G1 F1200.000
G1 X87.683 Y18.287 E2.07138
G1 F1200.000
G1 X87.625 Y18.583 E2.07332
G1 F1200.000
G1 X87.566 Y18.879 E2.07635
G1 F1200.000
G1 X87.508 Y19.176 E2.08048
G1 F1200.000
G1 X87.449 Y19.472 E2.08570
G1 F1200.000
G1 X87.391 Y19.768 E2.09201
G1 F1200.000
G1 X87.332 Y20.065 E2.09943
G1 X87.071 Y21.390 F3600.000
G1 F1200.000
G1 X87.042 Y21.538 E2.09985
G1 F1200.000
G1 X86.983 Y21.835 E2.10178
G1 F1200.000
G1 X86.925 Y22.131 E2.10482
G1 F1200.000
G1 X86.866 Y22.427 E2.10894
G1 F1200.000
G1 X86.808 Y22.724 E2.11417
G1 F1200.000
G1 X86.750 Y23.020 E2.12048
G1 F1200.000
G1 X86.691 Y23.316 E2.12789
G1 X86.843 Y24.055 F3600.000
G1 F1200.000
G1 X86.707 Y23.919 E2.13277
G1 X86.282 Y23.835 E2.14376
G1 X86.111 Y24.250 E2.15514
G1 X86.573 Y24.712 E2.17169
G1 X86.303 Y25.369 E2.18969
G1 X85.841 Y24.907 E2.20623
G1 X85.572 Y25.565 E2.22424
G1 X86.033 Y26.026 E2.24076
G1 X85.762 Y26.683 E2.25876
G1 X85.302 Y26.222 E2.27527
G1 X85.032 Y26.880 E2.29327
G1 X85.492 Y27.340 E2.30976
G1 X85.222 Y27.997 E2.32777
G1 X84.762 Y27.537 E2.34424
G1 X84.492 Y28.194 E2.36225
G1 X84.952 Y28.654 E2.37871
G1 X84.682 Y29.311 E2.39671
G1 X84.223 Y28.852 E2.41316
G1 X83.953 Y29.509 E2.43117
G1 X84.411 Y29.968 E2.44760
G1 X84.141 Y30.625 E2.46560
G1 X83.683 Y30.167 E2.48202
G1 X83.413 Y30.824 E2.50003
G1 X83.871 Y31.282 E2.51643
G1 X83.601 Y31.939 E2.53443
G1 X83.143 Y31.481 E2.55082
G1 X82.873 Y32.139 E2.56882
G1 X83.330 Y32.596 E2.58520
G1 X83.060 Y33.253 E2.60320
G1 X82.604 Y32.796 E2.61955
G1 X82.334 Y33.453 E2.63756
G1 X82.790 Y33.909 E2.65390
G1 X82.520 Y34.566 E2.67191
G1 X82.064 Y34.111 E2.68823
G1 X81.794 Y34.768 E2.70624
G1 X82.249 Y35.223 E2.72255
G1 X81.979 Y35.880 E2.74055
G1 X81.524 Y35.426 E2.75685
G1 X81.255 Y36.083 E2.77486
G1 X81.709 Y36.537 E2.79114
G1 X81.439 Y37.194 E2.80914
G1 X80.985 Y36.740 E2.82541
G1 X80.715 Y37.398 E2.84342
G1 X81.168 Y37.851 E2.85967
G1 X80.898 Y38.508 E2.87767
G1 X80.445 Y38.055 E2.89391
G1 X80.175 Y38.713 E2.91191
G1 X80.628 Y39.165 E2.92814
G1 X80.358 Y39.822 E2.94614
G1 X79.905 Y39.370 E2.96235
G1 X79.636 Y40.027 E2.98035
G1 X80.087 Y40.479 E2.99654
G1 X79.817 Y41.136 E3.01455
G1 X79.366 Y40.685 E3.03072
G1 X79.096 Y41.342 E3.04873
G1 X79.547 Y41.793 E3.06489
G1 X79.277 Y42.450 E3.08289
G1 X78.826 Y42.000 E3.09904
G1 X78.556 Y42.657 E3.11705
G1 X79.006 Y43.107 E3.13318
G1 X78.736 Y43.764 E3.15118
G1 X78.286 Y43.314 E3.16730
G1 X78.017 Y43.972 E3.18531
G1 X78.466 Y44.421 E3.20141
G1 X78.196 Y45.078 E3.21941
G1 X77.747 Y44.629 E3.23550
G1 X77.477 Y45.287 E3.25351
G1 X77.926 Y45.735 E3.26958
G1 X77.655 Y46.392 E3.28758
G1 X77.207 Y45.944 E3.30364
G1 X76.937 Y46.601 E3.32164
G1 X77.385 Y47.049 E3.33769
G1 X77.115 Y47.706 E3.35569
G1 X76.668 Y47.259 E3.37172
G1 X76.398 Y47.916 E3.38972
G1 X76.845 Y48.363 E3.40573
G1 X76.574 Y49.020 E3.42374
G1 X76.128 Y48.574 E3.43973
G1 X75.858 Y49.231 E3.45774
G1 X76.304 Y49.677 E3.47372
G1 X76.034 Y50.334 E3.49172
G1 X75.588 Y49.888 E3.50769
G1 X75.318 Y50.546 E3.52570
G1 X75.764 Y50.991 E3.54165
G1 X75.672 Y51.215 E3.54778
G1 X75.634 Y51.137 E3.54997
G1 X75.193 Y51.348 E3.56236
G1 X75.057 Y51.211 E3.56724
G1 X75.459 Y52.332 F3600.000
G1 F1200.000
G1 X74.872 Y52.612 E3.58850
G1 F1200.000
G1 X74.855 Y52.620 E3.58913
G1 X74.659 Y53.304 E3.61394
G1 X74.459 Y54.193 E3.64570
G1 X74.280 Y55.217 E3.68193
G1 X74.470 Y55.955 F3600.000
G1 F1200.000
G1 X74.333 Y55.819 E3.68699
G1 X73.942 Y55.754 E3.69741
G1 X73.862 Y56.309 E3.71214
G1 X74.460 Y56.907 E3.73437
G1 X74.487 Y57.499 E3.74993
G1 X74.535 Y57.944 E3.76169
G1 X73.744 Y57.152 E3.79110
G1 X73.645 Y58.015 E3.81393
G1 X74.686 Y59.056 E3.85262
G1 X74.847 Y60.179 E3.88241
G1 X73.555 Y58.886 E3.93043
G1 X73.474 Y59.767 E3.95366
G1 X75.008 Y61.301 E4.01067
G1 X75.169 Y62.423 E4.04046
G1 X73.407 Y60.661 E4.10593
G1 X73.347 Y61.563 E4.12969
G1 X75.329 Y63.545 E4.20334
G1 X75.490 Y64.667 E4.23313
G1 X73.300 Y62.478 E4.31450
G1 X73.253 Y63.392 E4.33856
G1 X75.651 Y65.790 E4.42767
G1 X75.811 Y66.912 E4.45746
G1 X73.215 Y64.315 E4.55395
G1 X73.184 Y65.246 E4.57841
G1 X75.972 Y68.034 E4.68202
G1 X76.133 Y69.156 E4.71181
G1 X73.170 Y66.194 E4.82190
G1 X73.157 Y67.142 E4.84681
G1 X75.459 Y69.444 E4.93235
G1 X74.243 Y68.745 E4.96918
G1 X73.280 Y68.226 E4.99794
G1 X73.144 Y68.090 E5.00301
G1 X76.999 Y71.088 F3600.000
G1 F2400.000
G1 X75.841 Y70.374 E5.03675
G1 X73.863 Y69.238 E5.09327
G1 X72.565 Y68.538 E5.12984
G1 X72.611 Y65.300 E5.21011
G1 X72.661 Y63.808 E5.24712
G1 X72.792 Y61.277 E5.30994
G1 X72.897 Y59.839 E5.34569
G1 X73.022 Y58.482 E5.37946
G1 X73.176 Y57.134 E5.41311
G1 X73.364 Y55.798 E5.44656
G1 X73.592 Y54.481 E5.47968
G1 X73.890 Y53.108 E5.51450
G1 X74.215 Y51.928 E5.54484
G1 X74.599 Y50.843 E5.57337
G1 X87.115 Y20.349 E6.39049
G1 X87.426 Y20.410 E6.39833
G1 X87.426 Y24.092 E6.48961
G1 X75.880 Y52.160 E7.24194
G1 X75.623 Y52.850 E7.26019
G1 X75.428 Y53.494 E7.27689
G1 X75.234 Y54.328 E7.29809
G1 X75.112 Y55.094 E7.31733
G1 X75.040 Y55.952 E7.33867
G1 X75.029 Y56.715 E7.35759
G1 X75.059 Y57.382 E7.37413
G1 X75.128 Y58.023 E7.39012
G1 X76.989 Y71.014 E7.71544
G1 X77.828 Y72.353 F3600.000
G1 F2400.000
G1 X75.513 Y70.925 E7.78288
G1 X73.551 Y69.798 E7.83894
G1 X71.920 Y68.919 E7.88487
G1 X71.970 Y65.282 E7.97503
G1 X72.020 Y63.781 E8.01228
G1 X72.151 Y61.237 E8.07542
G1 X72.258 Y59.786 E8.11148
G1 X72.384 Y58.416 E8.14558
G1 X72.540 Y57.053 E8.17960
G1 X72.730 Y55.698 E8.21351
G1 X72.962 Y54.358 E8.24723
G1 X73.267 Y52.955 E8.28282
G1 X73.601 Y51.742 E8.31401
G1 X73.808 Y51.119 E8.33029
G1 X74.002 Y50.608 E8.34384
G1 X87.757 Y17.097 E9.24178
G1 X88.067 Y17.158 E9.24962
G1 X88.067 Y24.219 E9.42465
G1 X76.477 Y52.394 E10.17986
G1 X76.231 Y53.055 E10.19733
G1 X76.048 Y53.660 E10.21302
G1 X75.864 Y54.451 E10.23314
G1 X75.750 Y55.171 E10.25122
G1 X75.681 Y55.984 E10.27143
G1 X75.670 Y56.705 E10.28932
G1 X75.699 Y57.333 E10.30489
G1 X75.764 Y57.943 E10.32011
G1 X77.818 Y72.279 E10.67910
G1 X78.572 Y73.549 F3600.000
G1 F1200.000
G1 X77.183 Y72.620 E10.71083
G1 X75.223 Y71.412 E10.75457
G1 X73.276 Y70.293 E10.79720
G1 X71.351 Y69.256 E10.83873
G1 X71.372 Y66.732 E10.88667
G1 X71.403 Y65.267 E10.91450
G1 X71.454 Y63.757 E10.94319
G1 X71.586 Y61.202 E10.99178
G1 X71.693 Y59.739 E11.01962
G1 X71.821 Y58.358 E11.04596
G1 X71.978 Y56.981 E11.07229
G1 X72.170 Y55.610 E11.09858
G1 X72.406 Y54.249 E11.12481
G1 X72.717 Y52.819 E11.15260
G1 X73.059 Y51.577 E11.17707
G1 X73.274 Y50.929 E11.19005
G1 X73.476 Y50.399 E11.20080
G1 X88.396 Y14.048 E11.94704
G1 X88.633 Y14.095 E11.95164
G1 X88.633 Y24.331 E12.14603
G1 X77.005 Y52.601 E12.72656
G1 X76.768 Y53.235 E12.73943
G1 X76.596 Y53.807 E12.75075
G1 X76.420 Y54.560 E12.76544
G1 X76.312 Y55.240 E12.77851
G1 X76.247 Y56.012 E12.79323
G1 X76.237 Y56.696 E12.80623
G1 X76.264 Y57.289 E12.81751
G1 X76.326 Y57.873 E12.82865
G1 X78.561 Y73.475 E13.12799
G1 X78.249 Y73.167 F3600.000
G1 X74.537 Y67.450 F3600.000
G1 X74.130 Y58.142 F3600.000
G1 X74.198 Y55.913 F3600.000
G1 X74.457 Y54.260 F3600.000
G1 X75.409 Y51.089 F3600.000
G1 X86.571 Y23.923 F3600.000
G1 X88.514 Y14.072 F3600.000
G1 F1200.000
G1 X88.587 Y13.704 E13.13541
G1 F1200.000
G1 X88.660 Y13.336 E13.14154
G1 F1200.000
G1 X88.732 Y12.968 E13.14636
G1 F1200.000
G1 X88.805 Y12.600 E13.14988
G1 F1200.000
G1 X88.841 Y12.416 E13.15099
G1 Z0.896 F3600.000
G1 X88.316 Y15.077 F3600.000
G1 F1200.000
G1 X88.258 Y15.372 E13.15237
G1 F1200.000
G1 X88.200 Y15.668 E13.15483
G1 F1200.000
G1 X88.141 Y15.963 E13.15838
G1 F1200.000
G1 X88.083 Y16.259 E13.16301
G1 F1200.000
G1 X88.025 Y16.554 E13.16873
